X:89
T:Dear Image of the Man I Love. JJo.089
S:J.Jones MS,1801,N.Shrops.
A:N Shropshire
Z:Neil Brookes
M:3/4
L:1/8
Q:1/4=100
K:C
G2|g3fe2|df eg Bd|{d}c4Ac|c2B/c/ d/e/ fe|!
e2{fe}d2g2|g3fe2|df eg Bd|c4 g/f/g/f/|!
{e}d3 c/B/ d/c/B/A/|G2zg a/g/f/e/|e2de f/e/d/c/|c2Bg a/g/f/e/|!
e2de f/e/d/c/|c2B2zG|e3 dcB|A>GF2za|!
a3 gfe|e2d2e2|f>ga2d2|e>fg2 c/G/c/e/|e/d/e/g/ c2TB2|c2z2|]

